assets/icons/qvision/emoji_food_beverage.svg

<svg xmlns="http://www.w3.org/2000/svg" enable-background="new 0 0 24 24" height="24" viewBox="0 0 24 24" width="24"><g><rect fill="none" height="24" width="24"/></g><g><g/><g><path d="M20,3H9v2.4l1.81,1.45C10.93,6.94,11,7.09,11,7.24v4.26c0,0.28-0.22,0.5-0.5,0.5h-4C6.22,12,6,11.78,6,11.5V7.24 c0-0.15,0.07-0.3,0.19-0.39L8,5.4V3H4v10c0,2.21,1.79,4,4,4h6c2.21,0,4-1.79,4-4v-3h2c1.11,0,2-0.9,2-2V5C22,3.89,21.11,3,20,3z M20,8h-2V5h2V8z"/><rect height="2" width="16" x="4" y="19"/></g></g></svg>

<svg width="24" height="24" viewBox="0 0 24 24" fill="none" xmlns="http://www.w3.org/2000/svg">
<g clip-path="url(#clip0_147_6406)">
<path d="M20 3H9V5.4L10.81 6.85C10.93 6.94 11 7.09 11 7.24V11.5C11 11.78 10.78 12 10.5 12H6.5C6.22 12 6 11.78 6 11.5V7.24C6 7.09 6.07 6.94 6.19 6.85L8 5.4V3H4V13C4 15.21 5.79 17 8 17H14C16.21 17 18 15.21 18 13V10H20C21.11 10 22 9.1 22 8V5C22 3.89 21.11 3 20 3ZM20 8H18V5H20V8Z" fill="#323232"/>
<path d="M20 19H4V21H20V19Z" fill="#323232"/>
</g>
<defs>
<clipPath id="clip0_147_6406">
<rect width="24" height="24" fill="white"/>
</clipPath>
</defs>
</svg>
